svg/file/photo_album_2_line.svg

<?xml version="1.0" encoding="UTF-8"?>
<svg width="24px" height="24px" viewBox="0 0 24 24" version="1.1" xmlns="http://www.w3.org/2000/svg" xmlns:xlink="http://www.w3.org/1999/xlink">
    <title>photo_album_2_line</title>
    <g id="页面-1" stroke="none" stroke-width="1" fill="none" fill-rule="evenodd">
        <g id="File" transform="translate(-384.000000, -288.000000)" fill-rule="nonzero">
            <g id="photo_album_2_line" transform="translate(384.000000, 288.000000)">
                 <path d="M24,0 L24,24 L0,24 L0,0 L24,0 Z M12.5934901,23.257841 L12.5819402,23.2595131 L12.5108777,23.2950439 L12.4918791,23.2987469 L12.4918791,23.2987469 L12.4767152,23.2950439 L12.4056548,23.2595131 C12.3958229,23.2563662 12.3870493,23.2590235 12.3821421,23.2649074 L12.3780323,23.275831 L12.360941,23.7031097 L12.3658947,23.7234994 L12.3769048,23.7357139 L12.4804777,23.8096931 L12.4953491,23.8136134 L12.4953491,23.8136134 L12.5071152,23.8096931 L12.6106902,23.7357139 L12.6232938,23.7196733 L12.6232938,23.7196733 L12.6266527,23.7031097 L12.609561,23.275831 C12.6075724,23.2657013 12.6010112,23.2592993 12.5934901,23.257841 L12.5934901,23.257841 Z M12.8583906,23.1452862 L12.8445485,23.1473072 L12.6598443,23.2396597 L12.6498822,23.2499052 L12.6498822,23.2499052 L12.6471943,23.2611114 L12.6650943,23.6906389 L12.6699349,23.7034178 L12.6699349,23.7034178 L12.678386,23.7104931 L12.8793402,23.8032389 C12.8914285,23.8068999 12.9022333,23.8029875 12.9078286,23.7952264 L12.9118235,23.7811639 L12.8776777,23.1665331 C12.8752882,23.1545897 12.8674102,23.1470016 12.8583906,23.1452862 L12.8583906,23.1452862 Z M12.1430473,23.1473072 C12.1332178,23.1423925 12.1221763,23.1452606 12.1156365,23.1525954 L12.1099173,23.1665331 L12.0757714,23.7811639 C12.0751323,23.7926639 12.0828099,23.8018602 12.0926481,23.8045676 L12.108256,23.8032389 L12.3092106,23.7104931 L12.3186497,23.7024347 L12.3186497,23.7024347 L12.3225043,23.6906389 L12.340401,23.2611114 L12.337245,23.2485176 L12.337245,23.2485176 L12.3277531,23.2396597 L12.1430473,23.1473072 Z" id="MingCute" fill-rule="nonzero"></path>
                <path d="M19,5 C20.0543909,5 20.9183044,5.81587733 20.9946635,6.85073759 L21.00015,7 L21.00015,19 C21.00015,20.0543909 20.1841633,20.9181678 19.149267,20.9945144 L19,21 L5,21 C3.94563773,21 3.08183483,20.18415 3.00548573,19.1492661 L3,19 L3,7 C3,5.94563773 3.81587733,5.08183483 4.85073759,5.00548573 L5,5 L19,5 Z M19,7 L5,7 L5,19 L5.92905,19 L14.2375,10.6915 C14.7257,10.2034 15.5171,10.2034 16.0053,10.6915 L19,13.6862 L19,7 Z M15.1214,12.6361 L8.75748,19 L19,19 L19,16.5146 L15.1214,12.6361 Z M8.5,9 C9.32843,9 10,9.67157 10,10.5 C10,11.3284 9.32843,12 8.5,12 C7.67157,12 7,11.3284 7,10.5 C7,9.67157 7.67157,9 8.5,9 Z M18,2 C18.5523,2 19,2.44772 19,3 C19,3.55228 18.5523,4 18,4 L6,4 C5.44772,4 5,3.55228 5,3 C5,2.44772 5.44772,2 6,2 L18,2 Z" id="形状" fill="#09244B"></path>
            </g>
        </g>
    </g>
</svg>

<svg xmlns="http://www.w3.org/2000/svg" width="24" height="24"><g fill="none" fill-rule="nonzero"><path d="M24 0v24H0V0h24ZM12.593 23.258l-.011.002-.071.035-.02.004-.014-.004-.071-.035c-.01-.004-.019-.001-.024.005l-.004.01-.017.428.005.02.01.013.104.074.015.004.012-.004.104-.074.012-.016.004-.017-.017-.427c-.002-.01-.009-.017-.017-.018Zm.265-.113-.013.002-.185.093-.01.01-.003.011.018.43.005.012.008.007.201.093c.012.004.023 0 .029-.008l.004-.014-.034-.614c-.003-.012-.01-.02-.02-.022Zm-.715.002a.023.023 0 0 0-.027.006l-.006.014-.034.614c0 .012.007.02.017.024l.015-.002.201-.093.01-.008.004-.011.017-.43-.003-.012-.01-.01-.184-.092Z"/><path fill="#09244B" d="M19 5a2 2 0 0 1 1.995 1.85L21 7v12a2 2 0 0 1-1.85 1.995L19 21H5a2 2 0 0 1-1.995-1.85L3 19V7a2 2 0 0 1 1.85-1.995L5 5h14Zm0 2H5v12h.93l8.308-8.308a1.25 1.25 0 0 1 1.767 0L19 13.686V7Zm-3.879 5.636L8.757 19H19v-2.485l-3.879-3.879ZM8.5 9a1.5 1.5 0 1 1 0 3 1.5 1.5 0 0 1 0-3ZM18 2a1 1 0 1 1 0 2H6a1 1 0 0 1 0-2h12Z"/></g></svg>
